horse-variant-fast.svg

<svg fill="currentColor" viewBox="0 0 24 24"><path d="M23 8v8l-3 1-3.09-5.5c-.26-.46-.99-.23-.91.31L17 21 7 17l1.15-8.06A6.92 6.92 0 0 1 15 3h8l-1.58 2.37C22.36 5.88 23 6.86 23 8M4 5h3.58c.5-.76 1.12-1.43 1.83-2H4c-.55 0-1 .45-1 1s.45 1 1 1m1.84 6H2c-.55 0-1 .45-1 1s.45 1 1 1h3.55zM3 9h3.12l.05-.34c.08-.58.22-1.13.41-1.66H3c-.55 0-1 .45-1 1s.45 1 1 1"/></svg>

<svg  viewBox="0 0 24 24" fill="currentColor"><path  d="M23 8V16L20 17L16.91 11.5C16.65 11.04 15.92 11.27 16 11.81L17 21L7 17L8.15 8.94C8.64 5.53 11.56 3 15 3H23L21.42 5.37C22.36 5.88 23 6.86 23 8M4 5H7.58C8.08 4.24 8.7 3.57 9.41 3H4C3.45 3 3 3.45 3 4S3.45 5 4 5M5.84 11H2C1.45 11 1 11.45 1 12S1.45 13 2 13H5.55L5.84 11M3 9H6.12L6.17 8.66C6.25 8.08 6.39 7.53 6.58 7H3C2.45 7 2 7.45 2 8S2.45 9 3 9Z"/></svg>
